5. Blanchard/img/whatsapp-logo.svg

<svg fill="none" height="40" viewBox="0 0 40 40" width="40" xmlns="http://www.w3.org/2000/svg"><path d="m20 39.375c10.7005 0 19.375-8.6745 19.375-19.375 0-10.70052-8.6745-19.375-19.375-19.375-10.70052 0-19.375 8.67448-19.375 19.375 0 10.7005 8.67448 19.375 19.375 19.375z" fill="#30bf39"/><path d="m25.8749 21.751c-.25-.125-1.5625-.875-1.8125-.9375-.25-.125-.4375-.125-.625.125s-.75.875-.875 1c-.1875.1875-.3125.1875-.5625.0625s-1.125-.4375-2.125-1.4375c-.75-.75-1.3125-1.625-1.4375-1.9375-.125-.25 0-.4375.125-.5625s.25-.3125.4375-.4375.1875-.25.3125-.4375.0625-.3125 0-.5-.5625-1.5-.75-2.0625-.4375-.4375-.5625-.5c-.1875 0-.3125-.0625-.5-.0625-.25 0-.5625.125-.75.3125-.25.25-1 .875-1 2.1875s.875 2.6875 1 2.8125c.125.1875 1.75 3.0625 4.4375 4.25s2.6875.8125 3.1875.8125 1.625-.625 1.875-1.1875c.25-.625.25-1.1875.1875-1.25-.125 0-.3125-.0625-.5625-.25zm-5 6.4375c-1.75 0-3.375-.5-4.8125-1.4375l-3.375 1.0625 1.125-3.25c-1.0625-1.5-1.6875-3.3125-1.6875-5.1875 0-4.875 3.9375-8.8125 8.8125-8.8125s8.75 3.9375 8.75 8.8125-3.9375 8.8125-8.8125 8.8125zm0-19.37502c-5.8125 0-10.5625 4.75002-10.5625 10.56252 0 1.9375.5 3.8125 1.5 5.4375l-1.93751 5.6875 5.87501-1.875c1.5625.875 3.3125 1.3125 5.125 1.3125 5.8125 0 10.5625-4.75 10.5625-10.5625s-4.6875-10.56252-10.5625-10.56252z" fill="#fff"/></svg>

<svg width="40" height="40" viewBox="0 0 40 40" fill="none" xmlns="http://www.w3.org/2000/svg">
<path d="M20 39.375C30.7005 39.375 39.375 30.7005 39.375 20C39.375 9.29948 30.7005 0.625 20 0.625C9.29948 0.625 0.625 9.29948 0.625 20C0.625 30.7005 9.29948 39.375 20 39.375Z" fill="#30BF39"/>
<path d="M25.8749 21.751C25.6249 21.626 24.3124 20.876 24.0624 20.8135C23.8124 20.6885 23.6249 20.6885 23.4374 20.9385C23.2499 21.1885 22.6874 21.8135 22.5624 21.9385C22.3749 22.126 22.2499 22.126 21.9999 22.001C21.7499 21.876 20.8749 21.5635 19.8749 20.5635C19.1249 19.8135 18.5624 18.9385 18.4374 18.626C18.3124 18.376 18.4374 18.1885 18.5624 18.0635C18.6874 17.9385 18.8124 17.751 18.9999 17.626C19.1874 17.501 19.1874 17.376 19.3124 17.1885C19.4374 17.001 19.3749 16.876 19.3124 16.6885C19.2499 16.501 18.7499 15.1885 18.5624 14.626C18.3749 14.0635 18.1249 14.1885 17.9999 14.126C17.8124 14.126 17.6874 14.0635 17.4999 14.0635C17.2499 14.0635 16.9374 14.1885 16.7499 14.376C16.4999 14.626 15.7499 15.251 15.7499 16.5635C15.7499 17.876 16.6249 19.251 16.7499 19.376C16.8749 19.5635 18.4999 22.4385 21.1874 23.626C23.8749 24.8135 23.8749 24.4385 24.3749 24.4385C24.8749 24.4385 25.9999 23.8135 26.2499 23.251C26.4999 22.626 26.4999 22.0635 26.4374 22.001C26.3124 22.001 26.1249 21.9385 25.8749 21.751ZM20.8749 28.1885C19.1249 28.1885 17.4999 27.6885 16.0624 26.751L12.6874 27.8135L13.8124 24.5635C12.7499 23.0635 12.1249 21.251 12.1249 19.376C12.1249 14.501 16.0624 10.5635 20.9374 10.5635C25.8124 10.5635 29.6874 14.501 29.6874 19.376C29.6874 24.251 25.7499 28.1885 20.8749 28.1885ZM20.8749 8.81348C15.0624 8.81348 10.3124 13.5635 10.3124 19.376C10.3124 21.3135 10.8124 23.1885 11.8124 24.8135L9.87489 30.501L15.7499 28.626C17.3124 29.501 19.0624 29.9385 20.8749 29.9385C26.6874 29.9385 31.4374 25.1885 31.4374 19.376C31.4374 13.5635 26.7499 8.81348 20.8749 8.81348Z" fill="white"/>
</svg>
